X: 402
T: Pevano Kolo
B: incoming
M:2/4
L:1/8
Q: 1/4=144
K:Edor
V:1 
|:"A"G3F|GF EE|"D"AA AF|"A"G2 E2|G3F|G3F|GF EE|"D"FF "E" FF|"A"E4:|
V:2 
|:z4|z4|z4|z4|E3D|E3D|ED CC|DD B,B,|A4:|
W: Birgitt Karlson
W: http://www-linux.gsi.de/~karlson/index_e.htm
% abcbook-tune_id 63cb0843c7b3339af7c1c8db
% abcbook-tune_composer_id 
% abcbook-boost 0
% abcbook-difficulty 0
% abcbook-tags balkan dances
% abcbook-tablature 
% abcbook-transpose 
% abcbook-tuning 
% abcbook-lastupdated 1674250307968
% abcbook-soundfonts 
% abcbook-repeats 1


